icons/lines/wallet-money.svg

<svg xmlns="http://www.w3.org/2000/svg" width="24" height="24" viewBox="0 0 24 24" fill="none" stroke="currentColor" stroke-width="2" stroke-linecap="round" stroke-linejoin="round" >
  <path d="M10.7516 16.8604V18.8904C10.7516 20.6104 9.15158 22.0004 7.18158 22.0004C5.21158 22.0004 3.60156 20.6104 3.60156 18.8904V16.8604C3.60156 18.5804 5.20158 19.8004 7.18158 19.8004C9.15158 19.8004 10.7516 18.5704 10.7516 16.8604Z"/>
  <path d="M10.7498 14.11C10.7498 14.61 10.6098 15.07 10.3698 15.47C9.77981 16.44 8.5698 17.05 7.1698 17.05C5.7698 17.05 4.55979 16.43 3.96979 15.47C3.72979 15.07 3.58984 14.61 3.58984 14.11C3.58984 13.25 3.98982 12.48 4.62982 11.92C5.27982 11.35 6.16979 11.01 7.15979 11.01C8.14979 11.01 9.03982 11.36 9.68982 11.92C10.3498 12.47 10.7498 13.25 10.7498 14.11Z"/>
  <path d="M10.7516 14.11V16.86C10.7516 18.58 9.15158 19.8 7.18158 19.8C5.21158 19.8 3.60156 18.57 3.60156 16.86V14.11C3.60156 12.39 5.20158 11 7.18158 11C8.17158 11 9.06161 11.35 9.71161 11.91C10.3516 12.47 10.7516 13.25 10.7516 14.11Z"/>
  <path d="M22.0002 10.97V13.03C22.0002 13.58 21.5602 14.03 21.0002 14.05H19.0402C17.9602 14.05 16.9702 13.26 16.8802 12.18C16.8202 11.55 17.0602 10.96 17.4802 10.55C17.8502 10.17 18.3602 9.95001 18.9202 9.95001H21.0002C21.5602 9.97001 22.0002 10.42 22.0002 10.97Z"/>
  <path d="M2 10.5V8.5C2 5.78 3.64 3.88 6.19 3.56C6.45 3.52 6.72 3.5 7 3.5H16C16.26 3.5 16.51 3.50999 16.75 3.54999C19.33 3.84999 21 5.76 21 8.5V9.95001H18.92C18.36 9.95001 17.85 10.17 17.48 10.55C17.06 10.96 16.82 11.55 16.88 12.18C16.97 13.26 17.96 14.05 19.04 14.05H21V15.5C21 18.5 19 20.5 16 20.5H13.5"/>
  </svg>

<svg xmlns="http://www.w3.org/2000/svg" width="24" height="24" viewBox="0 0 24 24" fill="none" stroke="currentColor" stroke-width="2" stroke-linecap="round" stroke-linejoin="round">
  <path d="M10.75 14.11a2.6 2.6 0 0 1-.38 1.36c-.59.97-1.8 1.58-3.2 1.58s-2.61-.62-3.2-1.58a2.6 2.6 0 0 1-.38-1.36c0-.86.4-1.63 1.04-2.19.65-.57 1.54-.91 2.53-.91s1.88.35 2.53.91c.66.55 1.06 1.33 1.06 2.19" />
  <path d="M10.752 14.11c0-.86-.4-1.64-1.04-2.2-.65-.56-1.54-.91-2.53-.91-1.98 0-3.58 1.39-3.58 3.11v4.78c0 1.72 1.61 3.11 3.58 3.11s3.57-1.39 3.57-3.11z" />
  <path d="M10.752 16.86c0 1.72-1.6 2.94-3.57 2.94s-3.58-1.23-3.58-2.94c0 1.72 1.6 2.94 3.58 2.94 1.97 0 3.57-1.23 3.57-2.94" />
  <path d="M18.92 9.95a2 2 0 0 0-2.04 2.23c.09 1.08 1.08 1.87 2.16 1.87" />
  <path d="M2 10.5v-2c0-2.72 1.64-4.62 4.19-4.94A5 5 0 0 1 7 3.5h9a4.6 4.6 0 0 1 .75.05C19.33 3.85 21 5.76 21 8.5v1.45h-2.08a2 2 0 0 0-2.04 2.23c.09 1.08 1.08 1.87 2.16 1.87H21v1.45c0 3-2 5-5 5h-2.5" />
  <path d="M21 9.95a1 1 0 0 1 1 1.02v2.06a1 1 0 0 1-1 1.02" />
</svg>
